X:0843
T:Morfa Rhuddlan,
C:A Welsh Air
M:3/4
L:1/8
Q:1/4=90 "Slow"
I: :: :|
Z:Jack Campin * www.campin.me.uk * 2009
K:A Minor
A2  A2  (ce)   | d2   d2   c2    |   B2  (Bc) (BA) |   e2 E2^G2 |\
A2 (AB) (ce)   | d2  (fe) (dc)   |{c}B2   A2  ^G2  |  ^G2 A4   :|
e2 (ef) (ge)   | d2  (de) (fd)   |   c2   c2   B2  |   B2 c2 z2 |\
e2 (ef) (gf/e/)| d2  (de) (fe/d/)|  (cf) (ed) (cB) |{B}c4    d2 |
e2 (cd) (ec)   |(dc) (Bc) (dB)   |  (cB) (Ac) (BA) |  ^G2 E2 z2 |\
A2 (AB) (cd)   |(de) (fe) (dc)   |   B2   A2  (A^G)|   A4    z2|]

